public/logos/18_eu/13.svg

<svg xmlns="http://www.w3.org/2000/svg" viewBox="0 0 38 38"  fill-rule="nonzero" stroke-linejoin="round" stroke-miterlimit="2" xmlns:v="https://vecta.io/nano"><path d="M36.72 18.72c0-9.875-8.125-18-18-18s-18 8.125-18 18 8.125 18 18 18 18-8.125 18-18" fill="#202020"/><path d="M19.7 23.54l1-.26a6.64 6.64 0 0 0 1.91 3 4.11 4.11 0 0 0 2.63.88 3.41 3.41 0 0 0 2.59-1.05 4 4 0 0 0 1-2.8c.059-1.018-.303-2.016-1-2.76a3.78 3.78 0 0 0-2.82-1c-.556.02-1.109.097-1.65.23l-.18-.2c.18-.54.37-1.28.58-2.2.281.044.565.064.85.06a3.72 3.72 0 0 0 2.51-.85 2.9 2.9 0 0 0 .94-2.2 2.51 2.51 0 0 0-.77-1.91c-.57-.509-1.317-.775-2.08-.74a4.55 4.55 0 0 0-1.66.31c-.38.14-.722.366-1 .66-.343.612-.612 1.264-.8 1.94l-1.11-.06c.42-1.457.724-2.945.91-4.45.652-.473 1.365-.857 2.12-1.14.789-.21 1.603-.314 2.42-.31 1.373-.087 2.732.329 3.82 1.17.897.732 1.404 1.842 1.37 3a3.83 3.83 0 0 1-.72 2.36 6.37 6.37 0 0 1-2.5 1.94 6.54 6.54 0 0 1 2.5.72c.576.366 1.034.891 1.32 1.51.349.687.524 1.45.51 2.22-.016 2.173-1.121 4.2-2.94 5.39-1.61 1.184-3.562 1.812-5.56 1.79-.603.007-1.204-.06-1.79-.2a8.67 8.67 0 0 1-1.74-.62l-.66-4.43zM6.48 28.47l-.14-.17v-.83l.14-.17c1.008-.046 2.011-.17 3-.37a.63.63 0 0 0 .37-.34 10.39 10.39 0 0 0 .26-2.74l.11-7.12-.08-4.54c-.08-.29-.11-.25-.26-.25-.14.008-.276.046-.4.11l-3.83 1.74-.2-.12c-.049-.563-.142-1.122-.28-1.67l.11-.23c2.958-.81 5.869-1.781 8.72-2.91l.37.23c-.15 1.28-.23 3.05-.29 5.27L14 22.43a26.33 26.33 0 0 0 .17 4c.036.197.147.373.31.49a11.22 11.22 0 0 0 2.85.34l.14.17v.83l-.14.17h-1.74c-1.74 0-2.93-.06-3.53-.06l-5.58.1z" fill="#fff"/></svg>

<?xml version="1.0" encoding="UTF-8" standalone="no"?>
<!DOCTYPE svg PUBLIC "-//W3C//DTD SVG 1.1//EN" "http://www.w3.org/Graphics/SVG/1.1/DTD/svg11.dtd">
<svg width="100%" height="100%" viewBox="0 0 38 38" version="1.1" xmlns="http://www.w3.org/2000/svg" xmlns:xlink="http://www.w3.org/1999/xlink" xml:space="preserve" xmlns:serif="http://www.serif.com/" style="fill-rule:evenodd;clip-rule:evenodd;stroke-linejoin:round;stroke-miterlimit:2;">
    <path d="M36.72,18.72C36.72,8.845 28.595,0.72 18.72,0.72C8.845,0.72 0.72,8.845 0.72,18.72C0.72,28.595 8.845,36.72 18.72,36.72C28.595,36.72 36.72,28.595 36.72,18.72" style="fill:rgb(32,32,32);fill-rule:nonzero;"/>
    <path d="M19.7,23.54L20.7,23.28C21.052,24.435 21.712,25.472 22.61,26.28C23.358,26.869 24.288,27.18 25.24,27.16C26.213,27.196 27.157,26.814 27.83,26.11C28.51,25.34 28.869,24.337 28.83,23.31C28.889,22.292 28.527,21.294 27.83,20.55C27.068,19.843 26.047,19.481 25.01,19.55C24.454,19.57 23.901,19.647 23.36,19.78L23.18,19.58C23.36,19.04 23.55,18.3 23.76,17.38C24.041,17.424 24.325,17.444 24.61,17.44C25.522,17.474 26.416,17.172 27.12,16.59C27.735,16.026 28.078,15.224 28.06,14.39C28.088,13.673 27.808,12.977 27.29,12.48C26.72,11.971 25.973,11.705 25.21,11.74C24.642,11.739 24.079,11.844 23.55,12.05C23.17,12.19 22.828,12.416 22.55,12.71C22.207,13.322 21.938,13.974 21.75,14.65L20.64,14.59C21.06,13.133 21.364,11.645 21.55,10.14C22.202,9.667 22.915,9.283 23.67,9C24.459,8.79 25.273,8.686 26.09,8.69C27.463,8.603 28.822,9.019 29.91,9.86C30.807,10.592 31.314,11.702 31.28,12.86C31.307,13.704 31.054,14.534 30.56,15.22C29.903,16.067 29.043,16.734 28.06,17.16C28.933,17.23 29.783,17.475 30.56,17.88C31.136,18.246 31.594,18.771 31.88,19.39C32.229,20.077 32.404,20.84 32.39,21.61C32.374,23.783 31.269,25.81 29.45,27C27.84,28.184 25.888,28.812 23.89,28.79C23.287,28.797 22.686,28.73 22.1,28.59C21.5,28.446 20.916,28.238 20.36,27.97C20.19,26.56 20,25.08 19.7,23.54ZM6.48,28.47L6.34,28.3L6.34,27.47L6.48,27.3C7.488,27.254 8.491,27.13 9.48,26.93C9.645,26.873 9.779,26.75 9.85,26.59C10.058,25.692 10.145,24.771 10.11,23.85C10.2,21.17 10.22,18.78 10.22,16.73C10.22,13.99 10.22,12.48 10.14,12.19C10.06,11.9 10.03,11.94 9.88,11.94C9.74,11.948 9.604,11.986 9.48,12.05L5.65,13.79L5.45,13.67C5.401,13.107 5.308,12.548 5.17,12L5.28,11.77C8.238,10.96 11.149,9.989 14,8.86L14.37,9.09C14.22,10.37 14.14,12.14 14.08,14.36C14.02,16.58 14,19.26 14,22.43C13.955,23.766 14.012,25.103 14.17,26.43C14.206,26.627 14.317,26.803 14.48,26.92C15.412,27.155 16.369,27.269 17.33,27.26L17.47,27.43L17.47,28.26L17.33,28.43L15.59,28.43C13.85,28.43 12.66,28.37 12.06,28.37C10.33,28.38 8.48,28.41 6.48,28.47Z" style="fill:white;fill-rule:nonzero;"/>
</svg>
